svgs/solid/gauge.svg

<svg xmlns="http://www.w3.org/2000/svg" viewBox="0 0 576 512"><!-- Font Awesome Pro 6.0.0-alpha2 by @fontawesome - https://fontawesome.com License - https://fontawesome.com/license (Commercial License) --><path d="M288 32C129 32 0 161 0 320C0 372.75 14.25 422.25 39 464.75C44.625 474.375 55.375 480 66.5 480H509.5C520.625 480 531.375 474.375 537 464.75C561.75 422.25 576 372.75 576 320C576 161 447 32 288 32ZM288 96C305.625 96 320 110.375 320 128S305.625 160 288 160S256 145.625 256 128S270.375 96 288 96ZM96 384C78.375 384 64 369.625 64 352S78.375 320 96 320S128 334.375 128 352S113.625 384 96 384ZM144 224C126.375 224 112 209.625 112 192S126.375 160 144 160S176 174.375 176 192S161.625 224 144 224ZM343.125 416H232.875C227.375 406.5 224 395.75 224 384C224 348.625 252.625 320 288 320C293.625 320 299 321 304.25 322.375L412.75 177.625C420.75 167 435.75 164.875 446.375 172.75C457 180.75 459.125 195.75 451.25 206.375L342.625 351.125C348.5 360.75 352 371.875 352 384C352 395.75 348.625 406.5 343.125 416ZM480 384C462.375 384 448 369.625 448 352S462.375 320 480 320S512 334.375 512 352S497.625 384 480 384Z"/></svg>

<svg xmlns="http://www.w3.org/2000/svg" viewBox="0 0 576 512"><!--! Font Awesome Pro 6.0.0-alpha3 by @fontawesome - https://fontawesome.com License - https://fontawesome.com/license (Commercial License) --><path d="M288 32c-159 0-288 129-288 288c0 52.75 14.25 102.3 39 144.8c5.625 9.625 16.38 15.25 27.5 15.25h443c11.12 0 21.88-5.625 27.5-15.25C561.8 422.3 576 372.8 576 320C576 161 447 32 288 32zM288 96c17.62 0 32 14.38 32 32s-14.38 32-32 32s-32-14.38-32-32S270.4 96 288 96zM96 384c-17.62 0-32-14.38-32-32s14.38-32 32-32s32 14.38 32 32S113.6 384 96 384zM144 224c-17.62 0-32-14.38-32-32s14.38-32 32-32s32 14.38 32 32S161.6 224 144 224zM343.1 416H232.9C227.4 406.5 224 395.8 224 384c0-35.38 28.62-64 64-64c5.625 0 11 1 16.25 2.375l108.5-144.8c8-10.62 23-12.75 33.62-4.875c10.62 8 12.75 23 4.875 33.63l-108.6 144.8C348.5 360.8 352 371.9 352 384C352 395.8 348.6 406.5 343.1 416zM480 384c-17.62 0-31.92-14.38-31.92-32s14.38-32 32-32S512 334.4 512 352S497.6 384 480 384z"/></svg>
